assets/img/braze_icons/message-x-square.svg

<svg fill="none" height="24" viewBox="0 0 24 24" width="24" xmlns="http://www.w3.org/2000/svg"><path clip-rule="evenodd" d="m16.2414 2h-8.4826c-.80497-.00001-1.46934-.00002-2.01053.04419-.5621.04593-1.0788.14449-1.56414.39179-.75264.38349-1.36457.99541-1.74806 1.74806-.24729.48533-.34585 1.00204-.39178 1.56414-.04422.54119-.04421 1.20555-.04419 2.01052l-.00005 6.3789c-.00043.7954-.00075 1.386.13634 1.8977.36987 1.3803 1.44806 2.4585 2.82843 2.8284.30747.0824.64347.1152 1.03528.1281l-.00001 1.3792c-.00004.2352-.00009.475.01776.6715.01707.188.06227.5427.30993.853.28498.357.71712.5647 1.17394.5642.39698-.0004.70222-.1867.85965-.2908.1646-.1089.35183-.2587.53551-.4057l2.41312-1.9305c.5186-.4149.6726-.532.8325-.6137.1605-.082.3313-.1419.5079-.1782.1759-.0361.3693-.0408 1.0334-.0408h2.5576c.805 0 1.4693 0 2.0105-.0442.5621-.0459 1.0788-.1445 1.5642-.3918.7526-.3835 1.3645-.9954 1.748-1.748.2473-.4854.3459-1.0021.3918-1.5642.0442-.5412.0442-1.2055.0442-2.0105v-5.48262c0-.80496 0-1.46932-.0442-2.0105-.0459-.5621-.1445-1.07881-.3918-1.56414-.3835-.75265-.9954-1.36457-1.748-1.74806-.4854-.2473-1.0021-.34586-1.5642-.39179-.5412-.04421-1.2055-.0442-2.0105-.04419zm-7.44851 5.29289c.39053-.39052 1.02369-.39052 1.41421 0l1.7929 1.7929 1.7929-1.7929c.3905-.39052 1.0237-.39052 1.4142 0 .3905.39053.3905 1.02369 0 1.41422l-1.7929 1.79289 1.7929 1.7929c.3905.3905.3905 1.0237 0 1.4142s-1.0237.3905-1.4142 0l-1.7929-1.7929-1.7929 1.7929c-.39052.3905-1.02368.3905-1.41421 0-.39052-.3905-.39052-1.0237 0-1.4142l1.79291-1.7929-1.79291-1.79289c-.39052-.39053-.39052-1.02369 0-1.41422z" fill="#801ed7" fill-rule="evenodd"/></svg>

<svg width="24" height="24" viewBox="0 0 24 24" fill="none" xmlns="http://www.w3.org/2000/svg">
<path fill-rule="evenodd" clip-rule="evenodd" d="M16.2414 2H7.7588C6.95383 1.99999 6.28946 1.99998 5.74827 2.04419C5.18617 2.09012 4.66947 2.18868 4.18413 2.43598C3.43149 2.81947 2.81956 3.43139 2.43607 4.18404C2.18878 4.66937 2.09022 5.18608 2.04429 5.74818C2.00007 6.28937 2.00008 6.95373 2.0001 7.7587L2.00005 14.1376C1.99962 14.933 1.9993 15.5236 2.13639 16.0353C2.50626 17.4156 3.58445 18.4938 4.96482 18.8637C5.27229 18.9461 5.60829 18.9789 6.0001 18.9918L6.00009 20.371C6.00005 20.6062 6 20.846 6.01785 21.0425C6.03492 21.2305 6.08012 21.5852 6.32778 21.8955C6.61276 22.2525 7.0449 22.4602 7.50172 22.4597C7.8987 22.4593 8.20394 22.273 8.36137 22.1689C8.52597 22.06 8.7132 21.9102 8.89688 21.7632L11.31 19.8327C11.8286 19.4178 11.9826 19.3007 12.1425 19.219C12.303 19.137 12.4738 19.0771 12.6504 19.0408C12.8263 19.0047 13.0197 19 13.6838 19H16.2414C17.0464 19 17.7107 19 18.2519 18.9558C18.814 18.9099 19.3307 18.8113 19.8161 18.564C20.5687 18.1805 21.1806 17.5686 21.5641 16.816C21.8114 16.3306 21.91 15.8139 21.9559 15.2518C22.0001 14.7106 22.0001 14.0463 22.0001 13.2413V7.75868C22.0001 6.95372 22.0001 6.28936 21.9559 5.74818C21.91 5.18608 21.8114 4.66937 21.5641 4.18404C21.1806 3.43139 20.5687 2.81947 19.8161 2.43598C19.3307 2.18868 18.814 2.09012 18.2519 2.04419C17.7107 1.99998 17.0464 1.99999 16.2414 2ZM8.79289 7.29289C9.18342 6.90237 9.81658 6.90237 10.2071 7.29289L12 9.08579L13.7929 7.29289C14.1834 6.90237 14.8166 6.90237 15.2071 7.29289C15.5976 7.68342 15.5976 8.31658 15.2071 8.70711L13.4142 10.5L15.2071 12.2929C15.5976 12.6834 15.5976 13.3166 15.2071 13.7071C14.8166 14.0976 14.1834 14.0976 13.7929 13.7071L12 11.9142L10.2071 13.7071C9.81658 14.0976 9.18342 14.0976 8.79289 13.7071C8.40237 13.3166 8.40237 12.6834 8.79289 12.2929L10.5858 10.5L8.79289 8.70711C8.40237 8.31658 8.40237 7.68342 8.79289 7.29289Z" fill="#801ED7"/>
</svg>
